X:1
T:Abschied
T:Satz: Konrad Max Kunz
T:Volkslied
T:Abschied
T:CPDL - Creative Commons Attribution Non Commercial 3.0
T:CPDL - Creative Commons Attribution Non Commercial 3.0
C:Konrad Max Kunz
Z:CPDL - Creative Commons Attribution Non Commercial 3.0
%%score [ ( 1 2 ) 3 4 ]
L:1/8
Q:1/4=56
M:2/4
K:G
V:1 treble nm="Sopran\nAlt"
V:2 treble 
V:3 treble-8 nm="Tenor"
V:4 bass nm="Bass"
V:1
!mf!"^Molto moderato" G/A/ | BB/d/ c(c/e/) | d(d/c/) B2 |!p! d(d/c/) B!mf!(B/d/) | cc Ad | B2 z :| %6
w: 1.~Muss i|denn, muss i denn zum _|Städ- te- le 'naus,|Städ- te- le 'naus, und _|du, mein Schatz, bleibst|hier!|
w: Wenn i|komm, wenn i komm, wenn i|wie- drum _ komm,|wie- drum _ komm, kehr' i|ein, mein Schatz, bei|dir.|
 G/B/ | A>B cA | B>c d(d/d/) |[Q:1/4=48]"^ritenuto"!<(! e!<)!e!>(! g f/!>)!e/ | %10
w: 1.~Kann i|gleich net all- weil|bei dir sein, han i|doch mein Freud' an _|
w: ||||
 d2 z[Q:1/4=56]"^a tempo" G/B/ | dd/e/ d(d/g/) | d(d/c/) B2 |!p! d(d/c/) B!mf!B/d/ | cc Ad | %15
w: dir; wenn i|komm, wenn i komm, wenn i|wie- drum _ komm,|wie- drum _ komm, kehr' i|ein, mein Schatz, bei|
w: |||||
 B2 !fermata!z |] %16
w: dir.|
w: |
V:2
 G/F/ | GG/B/ A(A/c/) | B(B/A/) G2 | B(B/A/) G(G/B/) | AA FF | G2 x :| G/G/ | F>G AF | %8
 G>A B(B/B/) | cc e d/c/ | B2 x D/G/ | BB/c/ B(B/d/) | B(B/A/) G2 | B(B/A/) GG/B/ | AA FF | G2 x |] %16
V:3
!mf! B/d/ | dB/G/ A(c/A/) | B(B/c/) d2 |!p! B(B/c/) d!mf!(d/d/) | dd dd | d2 z :| B/G/ | d>D Dd | %8
w: 2.~Wie du|weinst, wie du weinst, dass i|wan- de- re muss,|wan- de- re muss, wie wenn|d'Lieb' jetzt wär' vor-|bei!|2.~Denk du|net, wenn i a|
w: Sind au|drauß, sind au drauß der _|Mä- de- le viel,|Mä- de- le viel, lie- ber|Schatz, i bleib dir|treu.|||
 d>G G(G/G/) | ge e f/g/ | g2 z B/d/ | gg/g/ g(g/g/) | g(G/A/) B2 |!p! B(B/c/) d!mf!d/d/ | dd dd | %15
w: An- d're seh, no _|sei mein' Lieb' vor- *|bei; sind au|drauß, sind au drauß der _|Mä- de- le viel,|Mä- de- le viel, lie- ber|Schatz, i bleib dir|
w: |||||||
 d2 !fermata!z |] %16
w: treu.|
w: |
V:4
!mf! G,/D,/ | G,G,/G,/ G,(G,/G,/) | G,(G,/A,/) B,2 |!p! G,(G,/A,/) B,!mf!(G,/G,/) | DD D,D, | %5
w: 3.~Ü- ber's|Jahr, ü- ber's Jahr, wenn mer|Träu- be- le schneid't,|Träu- be- le schneid't, stell' i|hier mi wie- d'rum|
w: bin i|dann, bin i dann dein _|Schät- ze- le noch,|Schät- ze- le noch, so _|soll die Hoch- zeit|
 G,2 z :| G,/G,/ | D,>D, D,D, | G,>G,, G,,(G,/G,/) | C,C, C,E, | G,2 z G,/G,/ | %11
w: ein;|3.~Ü- ber's|Jahr, do ist mein'|Zeit vor- bei, do _|g'hör i mein und|dein; bin i|
w: sein.||||||
 G,G,,/G,,/ G,(G,,/G,,/) | G,(G,/G,/) G,2 |!p! G,(G,/A,/) B,!mf!(G,/G,/) | D,D DD, | %15
w: dann, bin i dann dein _|Schät- ze- le noch,|Schät- ze- le noch, so _|soll die Hoch- zeit|
w: ||||
 G,2 !fermata!z |] %16
w: sein.|
w: |

